svgs/sharp-solid/booth-curtain.svg

<svg xmlns="http://www.w3.org/2000/svg" viewBox="0 0 512 512"><!--! Font Awesome Pro 6.6.0 by @fontawesome - https://fontawesome.com License - https://fontawesome.com/license (Commercial License) Copyright 2024 Fonticons, Inc. --><path d="M32 0l96 0 0 64L64 64l0 416 0 32L0 512l0-32L0 32 0 0 32 0zM448 480l0-80c0 26.5-21.5 48-48 48s-48-21.5-48-48c0 26.5-21.5 48-48 48s-48-21.5-48-48c0 26.5-21.5 48-48 48s-48-21.5-48-48L160 0l96 0 96 0 96 0 32 0 32 0 0 32 0 448 0 32-64 0 0-32z"/></svg>

<svg xmlns="http://www.w3.org/2000/svg" viewBox="0 0 512 512"><!--! Font Awesome Pro 6.4.0 by @fontawesome - https://fontawesome.com License - https://fontawesome.com/license (Commercial License) Copyright 2023 Fonticons, Inc. --><path d="M32 0h96V64H64V480v32H0V480 32 0H32zM448 480V400c0 26.5-21.5 48-48 48s-48-21.5-48-48c0 26.5-21.5 48-48 48s-48-21.5-48-48c0 26.5-21.5 48-48 48s-48-21.5-48-48V0h96 96 96 32 32V32 480v32H448V480z"/></svg>
